X: 6789
T: Chapel Bell, The
R: jig
M: 6/8
K: Adorian
|:A,B,A, A,B,D|EAA G2B|AGE DB,A,|G,B,E DB,G,|
A,B,A, A,B,D|EAA G2B|AGE DB,G,|1 B,A,A, A,2G,:|2 B,A,A, A,2D||
|:EAA (3BcB A|EAA (3BcB A|GFG EDE|~G3 GED|
EAA (3BcB A|EAA (3BcB A|GFG EDB,|1 B,A,G, A,2D:|2 B,A,G, A,2G,||

